X:1
T:Tulsa, 76.76.76 D
T:Tulsa, 76.76.76 D
T:R. George Halls, 1879
T:Public Domain Courtesy of the Cyber Hymnal™
C:R. George Halls, 1879
Z:Public Domain
Z:Courtesy of the Cyber Hymnal™
%%score ( 1 2 ) ( 3 4 )
L:1/8
Q:1/4=105
M:6/8
K:C
V:1 treble 
V:2 treble 
V:3 bass 
V:4 bass 
V:1
 ([CE]/[DF]/) | [EG]2 [EG] [EG]2 [Ec] | [Fc]3 [FA]2 [FA] | ([EG][FA])[EG] ([DF][EG])[DF] | %4
 [CE]3- [CE]2 ([CE]/[DF]/) | [EG]2 [EG] [EG]2 [Ec] | [Fc]3 [FA]2 [Fc] | (BA)[FG] (GA)[FB] | %8
 [Ec]3- [Ec]2 [Ec] | [Fd]2 [Fd] [Fd]2 [Ge] | [Ec]3 [EG]2 [EG] | [FA]2 [FA] ([Ac][GB])[FA] | %12
 [EG]3- [EG]2 (E/D/) | (CE)[EG] [Ec]2 [EG] | (ABc) [EG]2 [Ec] | ([Ge][Fd])[Ec] [Fd]2 [FB] | %16
 [Ec]3- [Ec]2 C | (CE)G [Ec]2 [EG] | [FA]3 [Fc]2 [FA] | ([EG][FA])[EG] ([DF][EG])[DF] | %20
 [CE]3- [CE]2 C | (CE)G [Ec]2 [EG] | (ABc) !fermata![EG]2 [Ec] | ([Ge][Fd])[Ec] [Fd]2 [DB] | %24
 [Ec]3- [Ec]2 |] %25
V:2
 x | x6 | x6 | x6 | x6 | x6 | x6 | F2 F2 x2 | x6 | x6 | x6 | x6 | x5 C | C2 x4 | F3 x3 | x6 | %16
 x5 C | CEG x3 | x6 | x6 | x5 C | CEG x3 | F3 x3 | x6 | x5 |] %25
V:3
 [C,G,] | [C,C]2 [C,C] [C,C]2 [C,C] | [F,A,]3 [F,C]2 [F,C] | [G,C]2 G, [G,,G,]2 [G,,G,] | %4
 [C,G,]3- [C,G,]2 [C,G,] | [C,C]2 [C,C] [C,C]2 [C,G,] | [F,A,]3 [F,C]2 [F,A,] | %7
 G,2 G, [G,,G,]2 [G,,G,] | [C,G,]3- [C,G,]2 [C,G,] | G,2 G, G,2 G, | [C,G,]3 [C,C]2 [C,C] | %11
 [F,C]2 [F,C] [F,C]2 [F,C] | [C,C]3- [C,C]2 (G,/F,/) | (E,G,)[C,G,] [C,G,]2 [C,C] | %14
 (CB,A,) [C,C]2 [C,C] | G,2 G, [G,,G,]2 [G,,G,] | [C,G,]3- [C,G,]2 C, | C,E,G, [C,C]2 [C,C] | %18
 [F,C]3 [F,A,]2 [F,C] | G,2 G, [G,,G,]2 [G,,G,] | ([C,G,]2 [C,G,] [C,G,]2) C, | %21
 (C,E,)G, [C,C]2 [C,C] | (CB,A,) !fermata![C,C]2 [C,C] | G,2 G, [G,,G,]2 [G,,G,] | %24
 [C,G,]3- [C,G,]2 |] %25
V:4
 x | x6 | x6 | x2 G, x3 | x6 | x6 | x6 | G,2 G, x3 | x6 | G,2 G, G,2 G, | x6 | x6 | x5 C, | %13
 C,2 x4 | F,3 x3 | G,2 G, x3 | x5 C, | (C,E,)G, x3 | x6 | G,2 G, x3 | x5 C, | C,E,G, x3 | F,3 x3 | %23
 G,2 G, x3 | x5 |] %25

